img/images/mobile/mobile-tel-email.svg

<svg aria-hidden="true" style="position: absolute; width: 0; height: 0; overflow: hidden;" version="1.1" xmlns="http://www.w3.org/2000/svg" xmlns:xlink="http://www.w3.org/1999/xlink">
<defs>
<symbol id="envelope" viewBox="0 0 45 32">
<path   d="M40.6 0h-36.4c-2.316 0-4.2 1.794-4.2 4v24c0 2.206 1.884 4 4.2 4h36.4c2.316 0 4.2-1.794 4.2-4v-24c0-2.206-1.884-4-4.2-4zM40.6 2.667c0.19 0 0.371 0.038 0.537 0.103l-18.737 15.466-18.737-15.466c0.165-0.066 0.346-0.103 0.537-0.103h36.4zM40.6 29.333h-36.4c-0.772 0-1.4-0.598-1.4-1.333v-22.413l18.683 15.421c0.264 0.217 0.591 0.326 0.917 0.326s0.654-0.108 0.917-0.326l18.683-15.421v22.413c0 0.736-0.628 1.333-1.4 1.333z"></path>
</symbol>
<symbol id="smartphone" viewBox="0 0 23 32">
<path  d="M19.429 0h-16c-1.891 0-3.429 1.346-3.429 3v26c0 1.654 1.538 3 3.429 3h16c1.891 0 3.429-1.346 3.429-3v-26c0-1.654-1.538-3-3.429-3zM3.429 2h16c0.631 0 1.143 0.448 1.143 1v21h-18.286v-21c0-0.552 0.512-1 1.143-1zM19.429 30h-16c-0.631 0-1.143-0.448-1.143-1v-3h18.286v3c0 0.552-0.512 1-1.143 1z"></path>
<path d="M5.38 27.293c0.446 0.391 0.446 1.024 0 1.415s-1.17 0.391-1.616 0c-0.446-0.391-0.446-1.024 0-1.415s1.17-0.391 1.616 0z"></path>
</symbol>
</defs>
</svg>

<svg aria-hidden="true" style="position:absolute;width:0;height:0;overflow:hidden" xmlns="http://www.w3.org/2000/svg"><defs><symbol id="envelope" viewBox="0 0 45 32"><path d="M40.6 0H4.2C1.884 0 0 1.794 0 4v24c0 2.206 1.884 4 4.2 4h36.4c2.316 0 4.2-1.794 4.2-4V4c0-2.206-1.884-4-4.2-4zm0 2.667c.19 0 .371.038.537.103L22.4 18.236 3.663 2.77c.165-.066.346-.103.537-.103h36.4zm0 26.666H4.2c-.772 0-1.4-.598-1.4-1.333V5.587l18.683 15.421c.264.217.591.326.917.326s.654-.108.917-.326L42 5.587V28c0 .736-.628 1.333-1.4 1.333z"/></symbol><symbol id="smartphone" viewBox="0 0 23 32"><path d="M19.429 0h-16C1.538 0 0 1.346 0 3v26c0 1.654 1.538 3 3.429 3h16c1.891 0 3.429-1.346 3.429-3V3c0-1.654-1.538-3-3.429-3zm-16 2h16c.631 0 1.143.448 1.143 1v21H2.286V3c0-.552.512-1 1.143-1zm16 28h-16c-.631 0-1.143-.448-1.143-1v-3h18.286v3c0 .552-.512 1-1.143 1z"/><path d="M5.38 27.293c.446.391.446 1.024 0 1.415s-1.17.391-1.616 0c-.446-.391-.446-1.024 0-1.415s1.17-.391 1.616 0z"/></symbol></defs></svg>
